X: 29074
T: Neili's
R: polka
M: 2/4
K: Dmajor
|:ed cA|ed c2|AA/c/ ef|ge d2|
ed c>A|ed c2|A>c ef|gc d2:|
|:ef g/f/e|ec dA|ee/f/ ge|eA d2|
e>f gf|ed c>B|Ac e/e/f|gc d2:|

